!!!!SEGMENT: pl-cz--iii-745--001-005_zebrowski-marcin-jozef--missa-pastoralis-patrem.krn
!!!cenid: 17xx:2353
!!!COM: Żebrowski, Marcin Józef
!!!COM-rismID: pe30020322
!!!CDT: 1702-1770/06/29
!!!CNT: Polish
!!!OPR: Missa Pastoralis
!!!OTL: Patrem
!!!OMV: 005
!!!PDT:
!!!AGN:
!!!SMS-siglum: PL-CZ
!!!SMS-shelfmark: III-745
!!!SMS-shelfwork: 001-005 M
!!!SMS-variant:
!!!SMS-altvar:
!!!NIFC-rismSourceID: 300033497
!!!NIFC-islandoraID: pl-cz:25279
!!!URL-pdf-islandora: https://repozytorium.nifc.pl/islandora/object/pl-cz%3A25279/datastream/PDF/view
!!!URL-scan: https://polish.musicsources.pl/pl/lokalizacje/galeria/rekopisy/1475 @EN{Scan on Polish Music Herritage in Open Access Website} @PL{Skany w portalu Dziedzictwo Muzyki Polskiej w otwartym dostępie}
!!!ONB-nifc: UWAGA: części Mszy: 1. Kyrie, 2. Christe, 3. Et in terra, 4. Quoniam, 5. Patrem, 6. Et incarnatus, 7. Et resurrexit, 8. Sanctus, 9. Benedictus, 10. Osanna, 11. Agnus Dei
!!!AIN: 1 bass 2 clrno 1 organ 1 soprn 2 violn
!!!key: D
**kern	**fb	**kern	**kern	**kern	**text	**kern	**text	**kern	**kern
*part7	*	*part6	*part5	*part4	*part4	*part3	*part3	*part2	*part1
*staff7	*	*staff6	*staff5	*staff4	*staff4	*staff3	*staff3	*staff2	*staff1
*group	*	*group3	*group3	*group2	*group2	*group2	*group2	*group1	*group1
*I"Organo	*	*I"Violino Secundo	*I"Violino Primo.	*I"Baſso.	*	*I"Soprano ō Canto.	*	*I"Clarino Secundo in D:	*I"Clarino Primo in D:
*I'org	*	*I'vl 2	*I'vl 1	*I'B	*	*I'S	*	*I'clno 2 in D	*I'clno 1 in D
*Iorgan	*	*Ivioln	*Ivioln	*Ibass	*	*Isoprn	*	*Iclrno	*Iclrno
*ICklav	*	*ICstr	*ICstr	*ICvox	*	*ICvox	*	*ICbras	*ICbras
*clefF4	*	*clefG2	*clefG2	*clefF4	*	*clefC1	*	*clefG2	*clefG2
*	*	*	*	*	*	*	*	*ITrd-1c-2	*ITrd-1c-2
*k[f#c#]	*	*k[f#c#]	*k[f#c#]	*k[f#c#]	*	*k[f#c#]	*	*k[f#c#]	*k[f#c#]
*D:	*	*D:	*D:	*D:	*	*D:	*	*D:	*D:
*M2/2	*	*M2/2	*M2/2	*M2/2	*	*M2/2	*	*M2/2	*M2/2
*met(c|)	*	*met(c|)	*met(c|)	*met(c|)	*	*met(c|)	*	*met(c|)	*met(c|)
=1	=1	=1	=1	=1	=1	=1	=1	=1	=1
*2\right	*above	*	*2\right	*2\right	*	*	*	*	*2\right
!LO:TX:a:i:t=Tutti	!	!	!	!	!	!	!	!LO:TX:a:i:t=allo	!LO:TX:a:i:t=allo
!LO:TX:a:i:t=allo	!	!LO:TX:a:i:t=fresco	!	!	!	!	!	!	!
!LO:TX:b:i:t=uniſs&colon;	!	!LO:TX:a:i:t=allo.	!LO:TX:a:i:t=allo	!	!	!LO:TX:a:i:t=allo	!	!	!
!	!	!	!	!	!	!LO:TX:a:t=P:problem=w źródle znaki przykluczowe cc# f#	!	!	!
2D\|	.	2d/|	2dd\	(2D\	Pa-	(2d/	Pa-	2d/	2d/|
2F#\|	.	2f#/|	2ff#\|	2F#\)	.	2f#/)	.	2f#/	2f#/|
=2	=2	=2	=2	=2	=2	=2	=2	=2	=2
*	*	*	*	*	*	*2\right	*	*	*
2A\	.	2a/|	2aa\	2A\	-trem	2a\	-trem	2a/	2a/|
4r	.	4r	4r	4r	.	4r	.	4r	4r
*	*	*	*	*	*	*	*ij	*	*
!	!	!LO:TUP:b:problem=klamra łukowa	!LO:TUP:a:problem=klamra łukowa	!	!	!	!	!	!
4A\	.	12a/L	12aa\L	4A\	Pa-	4a\	Pa-	4a/	4a/
.	.	12b/	12bb\	.	.	.	.	.	.
.	.	12cc#/J	12ccc#\J	.	.	.	.	.	.
=3	=3	=3	=3	=3	=3	=3	=3	=3	=3
4d\	.	4dd\|	4ddd\	4d\	-tre(m)	4dd\	-trem	4dd\	4dd\
*	*	*	*	*	*	*	*Xij	*	*
!	!	!LO:TUP:b:problem=klamra łukowa	!LO:TUP:a:problem=klamra łukowa	!	!	!	!	!	!
4A\	.	12a\L	12aa\L	4A\	o-	4a\	O-	4a/	4a/
.	.	12b\	12bb\	.	.	.	.	.	.
.	.	12cc#\J	12ccc#\J	.	.	.	.	.	.
4d\	.	4dd\|	4ddd\	4d\	-mni-	4dd\	-mni-	4dd\	4dd\
4A\	.	4a\|	4aa\|	4A\	-po-	4a\	-po-	4a/	4a/
=4	=4	=4	=4	=4	=4	=4	=4	=4	=4
4F#\	X X 6	4f#/|	4ff#\|	4F#\	-ten-	4f#/	-ten-	4f#/	4f#/
4D\	.	4d/|	4dd\|	4D\	-tem	4d/	-tem	4d/	4d/
4r	.	4r	4r	4r	.	4r	.	2r	2r
4d\	X X 6	(4ff#\	4bb\|	4d\	fa-	4b\	Fa-	.	.
=5	=5	=5	=5	=5	=5	=5	=5	=5	=5
!	!	!	!	!	!	!	!	!LO:TX:a:t=2	!LO:TX:a:t=2
4d\	X 4/ 2	4ee\)	(4gg#X\	4d\	-cto-	4b\	-cto-	0r	0r
4c#\	X X 6	4e/	4aa\)	4c#\	-rem	4a\	-rem	.	.
4r	.	4r	4r	4r	.	4r	.	.	.
*	*	*	*	*	*ij	*	*	*	*
4B\	X X 6n	(4dd\	4ggn\|	4B\	fa-	4g/	Fa-	.	.
!	!	!	!	!	!	!LO:LB:g=original	!	!	!
=6	=6	=6	=6	=6	=6	=6	=6	=6	=6
4B\	X 4/ 2	4cc#\)	(4ee#X\	4B\	-cto-	4g/	-cto-	.	.
4A\	X X 6	4c#/	4ff#\)	4A\	-rem	4f#/	-rem	.	.
*	*	*	*	*	*Xij	*	*	*	*
4r	.	4r	4r	4r	.	4r	.	.	.
4G\	X X 6n	(4b/	4een\|	4G\	fac-	4ee\	Fa-	.	.
=7	=7	=7	=7	=7	=7	=7	=7	=7	=7
4G\	X 4 2	4a/)	(4cc#\	4G\	-to-	4cc#\	-cto-	4r	4r
4F#\	X X 6	4A/	4dd\)	4F#\	-rem	4dd\	-re(m)	8a/L	4aa\
.	.	.	.	.	.	.	.	8a/J	.
4E\	X X 6	4cc#\	4gg\	4E\	coe-	4gg\	Coe-	4a/	4gg\
4D\	X X 5	4dd\	4ff#\	8D\	-li	8ff#\	-li	4dd\	4ff#\
.	.	.	.	8D\	et	8ff#\	et	.	.
!	!	!LO:LB:g=original	!	!LO:LB:g=original	!	!	!	!	!
=8	=8	=8	=8	=8	=8	=8	=8	=8	=8
.	.	8qqee/	8qqgg/	.	.	.	.	.	.
4A\	X 6 4	4dd\	4ff#\	4A\	ter-	4ff#\	ter-	4dd\	4ff#\
4AA/	X 5 3	4cc#\	4ee\	4AA/	-rae	4ee\	-rae	4a/	4ee\
4r	.	4r	4r	4r	.	4r	.	2r	2r
4D/	X X 6	(4f#/	4b/|	8D/	vi-	8ff#\	vi-	.	.
.	.	.	.	8D/	-si-	8dd\	-si-	.	.
!	!	!	!	!	!	!	!	!LO:LB:g=original	!
=9	=9	=9	=9	=9	=9	=9	=9	=9	=9
!	!	!	!	!	!	!	!	!LO:TX:a:t=3	!LO:TX:a:t=3
4D/	X 4/ 2	4e/)	(4g#X/	8D/	-bi-	8b\	-bi-	0r	0r
.	.	.	.	8D/	-li-	8b\	-li-	.	.
4C#/	X X 6	4ee\	4a/)	4C#/	-um	4cc#\	-um	.	.
4r	.	4r	4r	4r	.	4r	.	.	.
4BB/	X X 6n	(4d/	4gn/|	(4BB/	om-	(8dd\L	om-	.	.
.	.	.	.	.	.	8b\J)	.	.	.
=10	=10	=10	=10	=10	=10	=10	=10	=10	=10
4BB/	X 4/ 2	4c#/)	(4e#X/	8B\)	.	8g#X/	.	.	.
.	.	.	.	8B\	-ni-	8g#/	-ni-	.	.
4AA/	X X 6	4cc#\|	4f#/)	4A\	-um	4a\	-um	.	.
4r	.	4r	4r	4r	.	4r	.	.	.
4GG/	X X 6n	(4B/	4en/|	4G\	et	(8b\L	et	.	.
!	!	!	!	!	!	!LO:TX:b:i:t=Volti	!	!	!
.	.	.	.	.	.	8gn\J)	.	.	.
!	!	!	!	!	!	!LO:PB:g=original	!	!	!
=11	=11	=11	=11	=11	=11	=11	=11	=11	=11
4G\	X 4 2	4A/)	(4c#/	(4G\	in-	(4e/	in-	1r	1r
4F#\	X X 6	4a/	4d/)	4F#\)	.	4f#/)	.	.	.
4E\	X X 6	4c#/	4g/	4E\	-vi-	4g/	-vi-	.	.
4D\	X X 5	4d/	4f#/|	4D\	-si-	4f#/	-si-	.	.
!LO:LB:g=original	!	!	!LO:LB:g=original	!	!	!	!	!	!
=12	=12	=12	=12	=12	=12	=12	=12	=12	=12
.	.	8qqe/	.	.	.	.	.	.	.
4A/	.	4d/	4f#/	8A\	-bi-	8f#/	-bi-	4r	4r
.	.	.	.	8A\	-li-	8d/	-li-	.	.
4AA/	X 5 3	4c#/	4e/	4AA/	-um	4e/	-um	8a/L	8ee\L
.	.	.	.	.	.	.	.	8a/J	8ee\J
4C#/	.	2r	2r	2r	.	2r	.	4a/	4ee\
4E\|	.	.	.	.	.	.	.	4a/	4ee\
!	!	!	!	!	!	!	!	!	!LO:LB:g=original
=13	=13	=13	=13	=13	=13	=13	=13	=13	=13
4A\	.	4r	8a/L|	4A\	et	4r	.	2a/	2ee\
.	.	.	(8a/	.	.	.	.	.	.
4A\	.	4cc#\	8g#X/	4A\	in	4cc#\	De-	.	.
.	.	.	8a/J)	.	.	.	.	.	.
4A\	.	4a\	8cc#\L	4A\	u-	4cc#\	-um	2r	2r
.	.	.	8a\	.	.	.	.	.	.
4A\	X 4/ 3	4cc#\	8ff#\	4A\	-num	4cc#\	de	.	.
.	.	.	8dd#X\J	.	.	.	.	.	.
=14	=14	=14	=14	=14	=14	=14	=14	=14	=14
!	!	!	!LO:TX:t=P:problem=mixed beam	!	!	!	!	!	!
!	!	!	!	!	!	!	!	!LO:TX:a:t=1	!LO:TX:a:t=1
4G#X\	X X 6	1b	8ee\L|	8G#X\	Do-	2b\	De-	1r	1r
.	.	.	(8g#X/	8G#\	-mi-	.	.	.	.
4G#\	.	.	8f#/	4G#\	-nu(m)	.	.	.	.
.	.	.	8e/J)	.	.	.	.	.	.
4G#\	.	.	8e/L	4G#\	Je-	2b\	-o	.	.
.	.	.	8e/	.	.	.	.	.	.
4G#\	.	.	8e/	4G#\	-ſum	.	.	.	.
.	.	.	8e/J	.	.	.	.	.	.
!	!	!	!	!LO:PB:g=original	!	!	!	!	!
=15	=15	=15	=15	=15	=15	=15	=15	=15	=15
4F#\	X X 5	4r	8f#/L|	4F#\	Chri-	2a\	lu-	4r	4r
.	.	.	(8f#/	.	.	.	.	.	.
4F#\	.	4a/	8e#X/	4F#\	-ſtu(m)	.	.	8f#/L	8f#/L
.	.	.	8f#/J)	.	.	.	.	8f#/J	8f#/J
4F#\	.	4f#/	8a/L	4F#\	fi-	4a\	-men	4f#/	4f#/
.	.	.	8f#/	.	.	.	.	.	.
4F#\	6 4/ 3	4a/	8dd/	8F#\	-li-	4a\	de	4f#/	4f#/
.	.	.	8b#X/J	8F#\	-um	.	.	.	.
=16	=16	=16	=16	=16	=16	=16	=16	=16	=16
!	!	!	!LO:TX:t=P:problem=mixed beam	!	!	!	!	!LO:TX:a:t=1	!LO:TX:a:t=1
4E\	X 6 3#	1g#X	8cc#\L	8E\	De-	4.g#X/	lu-	1r	1r
.	.	.	(8e/	8E\	-i	.	.	.	.
4E\	.	.	8d/)	8E\	u-	.	.	.	.
.	.	.	8c#/J	8E\	-ni	8g#/	-mi-	.	.
4E\	.	.	8c#/L	8E\	ge-	2g#/	-ne	.	.
.	.	.	8c#/	8E\	-ni-	.	.	.	.
4E\	.	.	8c#/	4E\	-tum	.	.	.	.
.	.	.	8c#/J	.	.	.	.	.	.
=17	=17	=17	=17	=17	=17	=17	=17	=17	=17
!	!	!	!LO:TX:t=P:problem=mixed beam	!	!	!	!	!	!
4D\	X X 5	4r	8d/L	4D\	et	2ff#\	De-	4r	4r
.	.	.	(8dd\	.	.	.	.	.	.
4D\	.	4ff#\	8cc#\	4D\	ex	.	.	8d/L	8d/L
.	.	.	8dd\J)	.	.	.	.	8d/J	8d/J
4D\	.	4dd\	8ff#\L	4D\	pa-	2ff#\	-um	4d/	4d/
.	.	.	8dd\	.	.	.	.	.	.
4D\	6 4/ 3	4ff#\	8bb\	4D\	-tre	.	.	4d/	4d/
.	.	.	8gg#X\J	.	.	.	.	.	.
!	!	!	!	!	!	!LO:LB:g=original	!	!	!
=18	=18	=18	=18	=18	=18	=18	=18	=18	=18
4C#/	X X 6	[1ee	4aa\|	4C#/	na-	2ee\	ve-	4a/	4ee\
!	!	!	!LO:TUP:a:problem=klamra łukowa	!	!	!	!	!	!
4D/	X 4/ 2	.	12ee\L	4D/	-tu(m)	.	.	4r	4r
.	.	.	12ff#\	.	.	.	.	.	.
.	.	.	12gg#X\J	.	.	.	.	.	.
4C#/	X X 6	.	4aa\|	4C#/	an-	4ee\	-rum	4a/	4ee\
!	!	!	!LO:TUP:a:problem=klamra łukowa	!	!	!	!	!	!
4D/	X 4/ 2	.	12ee\L	4D/	-te	4ee\	de	4r	4r
.	.	.	12ff#\	.	.	.	.	.	.
.	.	.	12gg#X\J	.	.	.	.	.	.
=19	=19	=19	=19	=19	=19	=19	=19	=19	=19
4C#/	X X 6	4ee\]	4aa\	4C#/	om-	4ee\	De-	2a/	4ee\
4D/	.	2a/	(8a/L	8D/	-ni-	(8ff#\L	-o	.	4ff#\
.	.	.	8b/J)	8D/	-a	8dd\J)	.	.	.
.	.	.	.	.	.	8qqcc#/	.	.	.
!	!	!	!LO:TX:a:t=P:problem=druga połowa taktu niewidoczna - defekt źródła	!	!	!	!	!	!
4E\	X X 4#	.	2ryy	4.E\	Sae-	2bT\	ve-	4ee\	4aa\
!	!	!LO:LB:g=original	!	!	!	!	!	!	!
4EE/	.	4g#Xt/	.	.	.	.	.	4dd\	4gg#X\
.	.	.	.	8E\	-cu-	.	.	.	.
!	!	!	!LO:LB:g=original	!	!	!	!	!	!
=20	=20	=20	=20	=20	=20	=20	=20	=20	=20
!LO:TX:b:t=solo	!	!	!	!	!	!	!	!	!
2A\	.	(8c#/L	(8a/L	2AA/	-la	2a\	-ro	4ee\	4aa\
.	.	8B/)	8g#X/)	.	.	.	.	.	.
.	.	8c#/	8a/	.	.	.	.	8a/L	8a/L
.	.	8c#/J|	8a/J|	.	.	.	.	8a/J	8a/J
!	!	!	!	!	!	!	!	!LO:LB:g=original	!
2G#X\	X 4 2	(8c#/L	(8a/L	2r	.	2r	.	8a/L	8a/L
.	.	8B/)	8g#X/	.	.	.	.	8a/	8a/
.	.	8c#/	8a/)	.	.	.	.	8a/	8a/
.	.	8c#/J|	8a/J|	.	.	.	.	8a/J	8a/J
!	!	!	!	!LO:LB:g=original	!	!	!	!	!
=21	=21	=21	=21	=21	=21	=21	=21	=21	=21
!	!	!LO:TX:t=P:problem=mixed beam	!	!	!	!LO:TX:b:i:t=6	!	!	!
2F#\	X 5 3	8c#/L	8a\L	00r	.	00r	.	2a/	2a/
.	.	8cc#\	8cc#\	.	.	.	.	.	.
.	.	8ee\	8ee\	.	.	.	.	.	.
.	.	8aa\J	8aa\J	.	.	.	.	.	.
2r	.	8ccc#\L	8ccc#\L	.	.	.	.	2r	2r
.	.	8aa\	8aa\	.	.	.	.	.	.
.	.	8ee\	8ee\	.	.	.	.	.	.
.	.	8cc#\J	8cc#\J	.	.	.	.	.	.
=22	=22	=22	=22	=22	=22	=22	=22	=22	=22
2F#\	.	(8f#/L	(8a/L	.	.	.	.	4r	4r
.	.	8e/	8g#X/)	.	.	.	.	.	.
.	.	8f#/)	8a/|	.	.	.	.	8a/L	8a/L
.	.	8f#/J|	8a/J	.	.	.	.	8a/J	8a/J
2E\	X 4 2	(8f#/L	(8a/L	.	.	.	.	8a/L	8a/L
.	.	8e/	8g#X/)	.	.	.	.	8a/	8a/
.	.	8f#/)	8a/|	.	.	.	.	8a/	8a/
.	.	8f#/J|	8a/J	.	.	.	.	8a/J	8a/J
!	!	!	!	!	!	!	!	!	!LO:LB:g=original
=23	=23	=23	=23	=23	=23	=23	=23	=23	=23
!	!	!LO:TX:t=P:problem=mixed beam	!	!	!	!	!	!	!
2D/	X X 5	8f#/L	8a\L	.	.	.	.	2a/	2a/
.	.	8dd\	8dd\	.	.	.	.	.	.
.	.	8ff#\	8ff#\	.	.	.	.	.	.
.	.	8aa\J	8aa\J	.	.	.	.	.	.
2r	.	8ddd\L	8ddd\L	.	.	.	.	2r	2r
.	.	8aa\	8aa\	.	.	.	.	.	.
.	.	8ff#\	8ff#\	.	.	.	.	.	.
.	.	8dd\J	8dd\J	.	.	.	.	.	.
=24	=24	=24	=24	=24	=24	=24	=24	=24	=24
2D/	.	(8f#/L	(8a/L	.	.	.	.	4r	4r
.	.	8e/)	8g#X/	.	.	.	.	.	.
.	.	8f#/	8a/)|	.	.	.	.	8a/L	8a/L
.	.	8f#/J|	8a/J|	.	.	.	.	8a/J	8a/J
2C#/	X X 6	4e/	(8a/L	.	.	.	.	4a/	4a/
.	.	.	8g#X/	.	.	.	.	.	.
.	.	4e/	8a/)|	.	.	.	.	4a/	4a/
.	.	.	8a/J	.	.	.	.	.	.
!LO:LB:g=original	!	!	!	!	!	!	!	!	!
=25	=25	=25	=25	=25	=25	=25	=25	=25	=25
!	!	!	!	!	!	!	!	!LO:TX:a:t=2	!LO:TX:a:t=2
4BB/	X X 6/	4g#X/	(8dd\L	0r	.	0r	.	0r	0r
.	.	.	8gg#X\	.	.	.	.	.	.
8G#X\L	.	8bb\L	8bb\)	.	.	.	.	.	.
8F#\J	.	8aa\J	8gg#\J|	.	.	.	.	.	.
8E\L	X X 3#	8gg#X\L	8gg#X\L	.	.	.	.	.	.
8D\	.	8ff#\	8ff#\	.	.	.	.	.	.
8C#\	.	8ee\	8ee\	.	.	.	.	.	.
8BB\J	.	8dd\J	8dd\J	.	.	.	.	.	.
!	!	!LO:LB:g=original	!	!	!	!	!	!	!
=26	=26	=26	=26	=26	=26	=26	=26	=26	=26
4AA/	.	(8dd\L	(8dd\L	.	.	.	.	.	.
.	.	8cc#\)	8cc#\)	.	.	.	.	.	.
4C#/	X X 6	8b\	8b\	.	.	.	.	.	.
.	.	8a\J|	8a\J|	.	.	.	.	.	.
4D/	X X 6	(8cc#\L	(8cc#\L	.	.	.	.	.	.
.	.	8b\)	8b\	.	.	.	.	.	.
4E\	X X #	8a\	8a\)	.	.	.	.	.	.
.	.	8g#X\J|	8g#X\J|	.	.	.	.	.	.
!	!	!	!LO:LB:g=original	!	!	!	!	!	!
=27	=27	=27	=27	=27	=27	=27	=27	=27	=27
!LO:TX:b:t=Tutti uniss	!	!	!	!	!	!	!	!	!
2AA/	.	2A/|	2a/|	2AA/	Ge-	2a\	Ge-	2a/	2a/
2C#/	.	2c#/|	2cc#\	2C#/	-ni-	2cc#\	-ni-	2r	2r
=28	=28	=28	=28	=28	=28	=28	=28	=28	=28
*	*	*	*	*	*	*	*	*2\right	*
2E\	X X #	2e/|	2ee\|	2E\	-tum	2ee\	-tum	2ee\	2ee\
4r	.	4r	4r	4r	.	4r	.	4r	4r
!	!	!LO:TUP:b:problem=klamra łukowa	!LO:TUP:a:problem=klamra łukowa	!	!	!	!	!	!
4E\	.	12e/L	12ee\L	4E\	non	4ee\	non	4ee\	4ee\
.	.	12f#/	12ff#\	.	.	.	.	.	.
.	.	12g#X/J	12gg#X\J	.	.	.	.	.	.
=29	=29	=29	=29	=29	=29	=29	=29	=29	=29
*	*	*	*	*	*ij	*	*ij	*	*
4A\	.	4a/	4aa\	(4A\	non	(4aa\	non	4aa\	4aa\
!	!	!LO:TUP:b:problem=klamra łukowa	!LO:TUP:a:problem=klamra łukowa	!	!	!	!	!	!
4E\	.	12e/L	12ee\L	4E\)	non	4ee\)	.	4ee\	4ee\
.	.	12f#/	12ff#\	.	.	.	.	.	.
.	.	12g#X/J	12gg#X\J	.	.	.	.	.	.
4A\	.	4a/|	4aa\	(4A\	non	(4aa\	non	4aa\	4aa\
*	*	*	*	*	*	*	*Xij	*	*
4E\	.	4e/|	4ee\|	4E\)	non	4ee\)	.	4ee\	4ee\
*	*	*	*	*	*Xij	*	*	*	*
=30	=30	=30	=30	=30	=30	=30	=30	=30	=30
4C#/	.	4c#/|	4cc#\|	4C#/	fa-	4cc#\	fa-	2a/	2a/
4AA/	.	4A/|	4a/	4AA/	-ctum	4a\	-ctum	.	.
8r	.	2r	8r	2r	.	2r	.	2r	2r
8Gn\L	.	.	8a\L	.	.	.	.	.	.
8F#\	.	.	8b\	.	.	.	.	.	.
8E\J	.	.	8cc#\J	.	.	.	.	.	.
!	!	!	!	!	!	!LO:LB:g=original	!	!LO:LB:g=original	!
=31	=31	=31	=31	=31	=31	=31	=31	=31	=31
2D\	.	2d/|	2dd\|	2D\	Con-	2dd\	con-	2d/	2d/|
2F#\	.	2f#/|	2ff#\|	2F#\	-sub-	2ff#\	-sub-	2f#/	2f#/|
=32	=32	=32	=32	=32	=32	=32	=32	=32	=32
2A\	.	2a/	2aa\	2.A\	-ſtan-	2.aa\	-ſtan-	2a/	2a/
4r	.	4r	4r	.	.	.	.	4r	4r
!	!	!LO:TUP:a:problem=klamra łukowa	!LO:TUP:a:problem=klamra łukowa	!	!	!	!	!	!
4A\	.	12a\L	12aa\L	4A\	-ti-	4a\	-ti-	4a/	4a/
.	.	12b\	12bb\	.	.	.	.	.	.
.	.	12cc#\J	12ccc#\J	.	.	.	.	.	.
=33	=33	=33	=33	=33	=33	=33	=33	=33	=33
4d\	.	4dd\|	4ddd\	(4d\	-a-	(4dd\	-a-	4dd\	4dd\
!	!	!LO:TUP:a:problem=klamra łukowa	!LO:TUP:a:problem=klamra łukowa	!	!	!	!	!	!
4A\	.	12a\L	12aa\L	4A\)	.	4a\)	.	4a/	4a/
.	.	12b\	12bb\	.	.	.	.	.	.
.	.	12cc#\J	12ccc#\J	.	.	.	.	.	.
4d\	.	4dd\|	4ddd\	4d\	-lem	4dd\	-lem	4dd/	4dd\
4A\	.	4a/|	4aa\	4A\	.	4a\	.	4a/	4a/
=34	=34	=34	=34	=34	=34	=34	=34	=34	=34
4F#\	X X 6	4f#/	4ff#\	4F#\	Pa-	4ff#\	Pa-	4f#/	4f#/
4D\	.	4d/	4dd\	4D\	-tri	4dd\	-tri	4d/	4d/
4A\	.	2r	2r	2r	.	2r	.	2r	2r
4G\	.	.	.	.	.	.	.	.	.
!	!	!LO:LB:g=original	!	!	!	!	!	!	!
=35	=35	=35	=35	=35	=35	=35	=35	=35	=35
4F#\	X X 6	4a/	(8dd\L	1F#	per	1dd	per	4d/	4d/
.	.	.	8ee\)	.	.	.	.	.	.
*	*	*2\right	*	*	*	*	*	*	*
4D\	.	2aa\	8ff#\	.	.	.	.	4r	4r
.	.	.	8gg\J|	.	.	.	.	.	.
4F#\	X X 6	.	8aa\L	.	.	.	.	4d/	4d/
.	.	.	(8gg\	.	.	.	.	.	.
4D\	.	[4a/	8ff#\)	.	.	.	.	4r	4r
.	.	.	8gg\J	.	.	.	.	.	.
!	!	!	!	!	!	!	!	!	!LO:LB:g=original
=36	=36	=36	=36	=36	=36	=36	=36	=36	=36
4F#\	X X 6	4a/]	8aa\L	1F#	quem	1dd	qvem	4d/	4d/
.	.	.	(8gg\	.	.	.	.	.	.
4D\	.	2aa\	8ff#\)	.	.	.	.	4r	4r
.	.	.	8gg\J	.	.	.	.	.	.
4F#\	X X 6	.	8aa\L	.	.	.	.	4d/	4d/
.	.	.	(8gg\	.	.	.	.	.	.
4D\	.	[4a/	8ff#\)	.	.	.	.	4r	4r
.	.	.	8gg\J	.	.	.	.	.	.
!	!	!	!LO:PB:g=original	!LO:LB:g=original	!	!	!	!	!
=37	=37	=37	=37	=37	=37	=37	=37	=37	=37
4F#\	X X 6	4a/]	(8aa\L	[1F#	o-	2.ddT\	o-	4d/	4d/
.	.	.	8gg\	.	.	.	.	.	.
4D\	.	2aa\	8ff#\)	.	.	.	.	4r	4r
.	.	.	8gg\J	.	.	.	.	.	.
4F#\	X X 6	.	(8aa\L	.	.	.	.	4d/	4d/
.	.	.	8gg\	.	.	.	.	.	.
!LO:TX:a:t=P:problem=koniec taktu niewidoczny - defekt źródła	!	!	!	!	!	!	!	!	!
4ryy	.	[4a/	8ff#\)|	.	.	4dd\	-mni-	4r	4r
.	.	.	8ee\J|	.	.	.	.	.	.
!LO:LB:g=original	!	!	!	!	!	!	!	!	!
=38	=38	=38	=38	=38	=38	=38	=38	=38	=38
.	.	.	8qqee/	.	.	.	.	.	.
4F#\	X X 6	4a/]	(16dd\LL	4F#\]	.	1dd	-a	4d/	4d/
.	.	.	16cc#\JJ)	.	.	.	.	.	.
.	.	.	4.dd\	.	.	.	.	.	.
4A\	.	2aa\	.	4A\	.	.	.	8d/L	8d/L
.	.	.	.	.	.	.	.	8d/J	8d/J
.	.	.	8qqee/	.	.	.	.	.	.
4F#\	X X 6	.	16dd\LL	8F#\	-ni-	.	.	4d/	4d/
.	.	.	(16cc#\JJ	.	.	.	.	.	.
.	.	.	4.dd\)	8F#\	-a	.	.	.	.
4D\	.	4a/	.	4D/	.	.	.	4r	4r
=39	=39	=39	=39	=39	=39	=39	=39	=39	=39
!	!	!	!	!	!	!	!	!LO:TX:a:t=3	!LO:TX:a:t=3
4G\	X X 6	4b/	8ee\L	1G	per	1ee	per	0r	0r
.	.	.	(8ff#\	.	.	.	.	.	.
4E\	.	2bb\	8gg\)	.	.	.	.	.	.
.	.	.	8aa\J|	.	.	.	.	.	.
4G\	X X 6	.	8bb\L	.	.	.	.	.	.
.	.	.	(8aa\	.	.	.	.	.	.
4E\	.	[4b/	8gg\)	.	.	.	.	.	.
.	.	.	8aa\J	.	.	.	.	.	.
=40	=40	=40	=40	=40	=40	=40	=40	=40	=40
4G\	X X 6	4b/]	8bb\L	1G	quem	1ee	qvem	.	.
.	.	.	(8aa\	.	.	.	.	.	.
4E\	.	2bb\	8gg\	.	.	.	.	.	.
.	.	.	8aa\J)	.	.	.	.	.	.
4G\	X X 6	.	8bb\L	.	.	.	.	.	.
.	.	.	(8aa\	.	.	.	.	.	.
4E\	.	[4b/	8gg\	.	.	.	.	.	.
.	.	.	8aa\J)	.	.	.	.	.	.
=41	=41	=41	=41	=41	=41	=41	=41	=41	=41
4G\	X X 6	4b/]	8bb\L	2.G\	om-	2.ee\	o-	1r	1r
.	.	.	(8aa\	.	.	.	.	.	.
4E\	.	2bb\	8gg\	.	.	.	.	.	.
.	.	.	8aa\J)	.	.	.	.	.	.
4G\	X X 6	.	(8bb\L	.	.	.	.	.	.
.	.	.	8aa\)	.	.	.	.	.	.
4E\	.	8b/L	8gg\|	4E\	-ni-	4ee\	-mni-	.	.
.	.	8g/J	8ff#\J|	.	.	.	.	.	.
=42	=42	=42	=42	=42	=42	=42	=42	=42	=42
.	.	.	8qqff#/	.	.	.	.	.	.
4C#/	X X 6	4a/	(16ee\LL	4C#/	-a	1ee	-a	4r	4r
.	.	.	16dd#X\JJ)	.	.	.	.	.	.
.	.	.	4.ee\	.	.	.	.	.	.
4E\	.	2ff#\	.	4E\	om-	.	.	8a/L	8ee\L
.	.	.	.	.	.	.	.	8a/J	8ee\J
.	.	.	8qqff#/	.	.	.	.	.	.
4C#/	X X 6	.	(16ee\LL	8C#/	.	.	.	4a/	4ee\
.	.	.	16dd#X\JJ)	.	.	.	.	.	.
.	.	.	4.ee\	8C#/	-ni-	.	.	.	.
4AA/	.	4cc#\	.	4AA/	-a	.	.	4a/	4ee\
!	!	!	!	!	!	!LO:LB:g=original	!	!LO:PB:g=original	!
=43	=43	=43	=43	=43	=43	=43	=43	=43	=43
2D\	.	4dd\	4ff#\	4F#\	per-	(4dd\	per	4dd\	4ff#\
.	.	2ff#\	2aa\	2A\	-quem	2ff#\)	.	2ff#\	2aa\
2D\	.	.	.	.	.	.	.	.	.
.	.	8ee\L	8gg\L	8G\L	.	(8ee\L	qvem	8ee\L	8gg\L
.	.	8cc#\J	8ff#\J	8F#\J	.	8dd\J)	.	8dd\J	8ff#\J
=44	=44	=44	=44	=44	=44	=44	=44	=44	=44
2A\	X X 3	4cc#\|	4ee\|	4E\	om-	4cc#\	om-	4a/	4ee\
.	X 7 X	(4ee\	(4gg\	4G\	.	(4ee\	.	4ee\	4gg\
2AA/	X 6 4	4dd\	4ff#\)	8F#\	.	8dd\)	.	4dd\	4ff#\
.	X 3 3	.	.	8F#\	-ni-	8dd\	-ni-	.	.
.	.	4cc#\)	4ee\	4E\	-a	4cc#\	-a	4a/	4ee\
=45	=45	=45	=45	=45	=45	=45	=45	=45	=45
!	!	!	!	!	!	!	!	!LO:TX:a:t=2	!LO:TX:a:t=2
2D\	.	4f#/	4dd\	(4D\	per-	(4f#/	per	0r	0r
.	.	2a/	2ff#\	2F#\)	.	2a\)	.	.	.
2D\	.	.	.	.	.	.	.	.	.
!	!	!LO:LB:g=original	!LO:LB:g=original	!	!	!	!	!	!
.	.	8g/L	4dd\	8E\L	-quem	(8g/L	qvem	.	.
.	.	8f#/J	.	8D\J	.	8f#/J)	.	.	.
!	!	!	!	!LO:LB:g=original	!	!	!	!	!
=46	=46	=46	=46	=46	=46	=46	=46	=46	=46
!	!	!	!	!LO:TX:a:t=P:problem=pierwsz nuta w takcie niewidoczna - defekt źródła	!	!	!	!	!
2A\	X X 3	4e/|	4cc#\|	4ryy	.	4e/	om-	.	.
.	X 7 X	(4g/	(4ee\	(4E/	o-	(>4g/	.	.	.
2AA/	X 6 4	4f#/	4dd\	8D/)	.	8f#/)	.	.	.
.	X 5 3	.	.	8D/	-mni-	8f#/	-ni-	.	.
.	.	4e/)	4cc#\)	4C#/	-a	4e/	-a	.	.
=47	=47	=47	=47	=47	=47	=47	=47	=47	=47
2D\	.	4f#/	(8dd\L	(4D/	per	(4f#/	per	4dd\	4ff#\
.	.	.	8ff#\J)	.	.	.	.	.	.
.	.	2ff#\	2aa\	2A\)	.	2ff#\)	.	2ff#\	2aa\
2D\	.	.	.	.	.	.	.	.	.
.	.	8ee\L	(8gg\L	(8G\L	quem	(8ee\L	qvem	8ee\L	8gg\L
.	.	8dd\J	8ff#\J)	8F#\J)	.	8dd\J)	.	8dd\J	8ff#\J
=48	=48	=48	=48	=48	=48	=48	=48	=48	=48
2A\	X X 3	4cc#\|	4ee\|	(4E\	om-	4cc#\	om-	4a/	4ee\
.	X 7 X	(4ee\	(4gg\	4G\)	.	(4ee\	-ni-	4ee\	4gg\
2AA/	X 6 4	4dd\)	4ff#\	8F#\	.	8dd\)	.	4dd\	4ff#\
.	X 5 3	.	.	8F#\	-ni-	8dd\	-a	.	.
!	!	!	!	!	!	!LO:LB:g=original	!	!	!
.	.	4cc#\	4ee\)	4E\	-a	4cc#\	.	4a/	4ee\
=49	=49	=49	=49	=49	=49	=49	=49	=49	=49
4r	.	4dd\	4.dd\	4r	.	4r	.	2f#/	2dd\
4F#\	X X 6	2dd\	.	(4F#\	fa-	(4a\	fa-	.	.
.	.	.	8a/	.	.	.	.	.	.
.	.	.	8qqff#/	.	.	.	.	.	.
4G\	X 6 5	.	2eeT\	4G\)	.	4b\)	.	2a/	2eeT\
4A\	.	4cc#t\	.	4A\	-cta	4cc#t\	-cta	.	.
!	!	!	!	!	!	!	!	!	!LO:LB:g=original
=50	=50	=50	=50	=50	=50	=50	=50	=50	=50
2D\	.	4dd\	4dd\	2D/	ſunt	2dd\	sunt	2f#/	2dd\
.	.	4ff# 4a 4d/	4ff# 4a 4d/	.	.	.	.	.	.
4r	.	4r	4r	2r	.	2r	.	2r	2r
4d\	X X 6	(4ff#\	4bb\	.	.	.	.	.	.
=51	=51	=51	=51	=51	=51	=51	=51	=51	=51
!	!	!	!	!LO:TX:b:t=8	!	!LO:TX:b:t=8	!	!LO:TX:a:t=7	!LO:TX:a:t=7
4d\	X 4/ 2	4ee\)	(4gg#X\	00r	.	00r	.	00r	00r
4c#\	X X 6	4e/	4aa\)	.	.	.	.	.	.
4r	X X n	4r	4r	.	.	.	.	.	.
4B\	X X 6	(4dd\	4ggn\|	.	.	.	.	.	.
=52	=52	=52	=52	=52	=52	=52	=52	=52	=52
4B\	X 4/ 2	4cc#\)	(4ee#X\	.	.	.	.	.	.
4A\	X X 6	4c#/	4ff#\)	.	.	.	.	.	.
4r	X X n	4r	4r	.	.	.	.	.	.
!LO:TX:a:t=P:problem=koniec taktu niewidoczny - defekt źródła	!	!	!	!	!	!	!	!	!
4ryy	.	(4b/	4een\|	.	.	.	.	.	.
!LO:PB:g=original	!	!	!	!	!	!	!	!	!
=53	=53	=53	=53	=53	=53	=53	=53	=53	=53
4G\	X 4 2	4a/)	(4cc#\	.	.	.	.	.	.
4F#\	X X 6	4A/	4dd\)	.	.	.	.	.	.
4E\	X X 6	4cc#\	4gg\|	.	.	.	.	.	.
4D\	X X 5	(4dd\	4ff#\|	.	.	.	.	.	.
=54	=54	=54	=54	=54	=54	=54	=54	=54	=54
.	.	8qqee/)	8qqgg/	.	.	.	.	.	.
4A\	X 6 4	4dd\	(4ff#\	.	.	.	.	.	.
4AA/	X 5 3	4cc#\	4ee\)	.	.	.	.	.	.
4r	.	4r	4r	.	.	.	.	.	.
4D/	X X 6	(4f#/	4b/|	.	.	.	.	.	.
=55	=55	=55	=55	=55	=55	=55	=55	=55	=55
4D/	.	4e/)	(4g#X/	00r	.	00r	.	0r	0r
4C#/	X 4 2	4ee\|	4a/)	.	.	.	.	.	.
!	!	!LO:LB:g=original	!	!	!	!	!	!	!
4r	X X n	4r	4r	.	.	.	.	.	.
4BB/	X X 6	(4d/	4gn/|	.	.	.	.	.	.
=56	=56	=56	=56	=56	=56	=56	=56	=56	=56
4BB/	X 4 2	4c#/)	(4e#X/	.	.	.	.	.	.
4AA/	X X 6	4cc#\|	4f#/)	.	.	.	.	.	.
4r	X X n	4r	4r	.	.	.	.	.	.
4GG/	X X 6	(4B/	4en/|	.	.	.	.	.	.
=57	=57	=57	=57	=57	=57	=57	=57	=57	=57
4G\	X 4 2	4A/)	(4c#/	.	.	.	.	1r	1r
4F#\	X X 6	4a/	4d/)	.	.	.	.	.	.
4E\	X X 6	4c#/	4g/	.	.	.	.	.	.
4D\	X X 5	4d/	4f#/	.	.	.	.	.	.
!	!	!	!LO:LB:g=original	!	!	!	!	!	!
=58	=58	=58	=58	=58	=58	=58	=58	=58	=58
!	!	!	!LO:TX:a:t=P:problem=pierwsza wartość w takcie niewidoczna - defekt źródła	!	!	!	!	!	!
4AA/	X 6 4	8e/L	4ryy	.	.	.	.	4r	4r
.	.	8d/J	.	.	.	.	.	.	.
4A\	X 5 3	4c#/	4e/	.	.	.	.	8a/L	2aa\
.	.	.	.	.	.	.	.	8a/J	.
!LO:TX:b:t=T&colon;	!	!	!	!	!	!	!	!	!
8B\L	X X 7	2r	2r	.	.	.	.	4a/	.
8A\	.	.	.	.	.	.	.	.	.
8B\	.	.	.	.	.	.	.	4a/	4gg\
8c#\J	X 6 5	.	.	.	.	.	.	.	.
=59	=59	=59	=59	=59	=59	=59	=59	=59	=59
4d\	X X 3	4r	8dd\L|	1d	Qui	4ff#\	Qui	1dd	1ff#
.	.	.	(8dd\	.	.	.	.	.	.
4d\	.	4ff#\	8cc#\)	.	.	4ff#\	pro-	.	.
.	.	.	8dd\J	.	.	.	.	.	.
4d\	.	4dd\	8ff#\L	.	.	4ff#\	-pter	.	.
.	.	.	8dd\	.	.	.	.	.	.
4d\	X 4 3	4ff#\	8bb\	.	.	4ff#\	nos	.	.
.	.	.	8gg#X\J	.	.	.	.	.	.
!	!	!	!	!	!	!	!	!LO:LB:g=original	!
=60	=60	=60	=60	=60	=60	=60	=60	=60	=60
4c#\	X X 6	1ee	8aa\L|	4r	.	4.ee\	ho-	1a	1ee
.	.	.	(8cc#\	.	.	.	.	.	.
4c#\	.	.	8b\	4c#\	et	.	.	.	.
.	.	.	8a\J)	.	.	8ee\	-mi-	.	.
4c#\	.	.	8a/L	4c#\	p(ro)-	2ee\	-nes	.	.
.	.	.	8a/	.	.	.	.	.	.
4c#\	.	.	8a/	4c#\	-pter	.	.	.	.
.	.	.	8a/J	.	.	.	.	.	.
!LO:LB:g=original	!	!	!	!	!	!	!	!	!
=61	=61	=61	=61	=61	=61	=61	=61	=61	=61
4B\	X X 5	4r	8b/L|	2B\	no-	1dd	de-	4r	4r
.	.	.	(8b/	.	.	.	.	.	.
4B\	.	4dd\	8a#X/	.	.	.	.	8f#/L	8f#/L
.	.	.	8b/J)	.	.	.	.	8f#/J	8f#/J
4B\	X X 6	4b\	8dd\L	4B\	-ſtra(m)	.	.	8f#/L	8f#/L
.	.	.	8b\	.	.	.	.	8f#/	8f#/
4B\	X X 3	4dd\	8ggn\	4B\	Sa-	.	.	8f#/	8f#/
.	.	.	8ee#X\J	.	.	.	.	8f#/J	8f#/J
!	!	!	!	!LO:LB:g=original	!	!	!	!	!
=62	=62	=62	=62	=62	=62	=62	=62	=62	=62
!	!	!	!LO:TX:t=P:problem=klamra łukowa	!	!	!	!	!	!
4A\	X X 6	1cc#	8ff#\L|	2A\	-cu-	2cc#\	-scen-	4f#/	4f#/
.	.	.	(8a/	.	.	.	.	.	.
4A\	.	.	8g/	.	.	.	.	4r	4r
.	.	.	8f#/J)	.	.	.	.	.	.
4A\	.	.	8f#/L	2A\	-lem	2cc#\	-dit	4f#/	4f#/
.	.	.	8f#/	.	.	.	.	.	.
4A\	.	.	8f#/	.	.	.	.	4r	4r
.	.	.	8f#/J	.	.	.	.	.	.
=63	=63	=63	=63	=63	=63	=63	=63	=63	=63
4G\	X X 5	4r	8g/L|	1G	des-	1b	de-	4r	4r
.	.	.	(8g/	.	.	.	.	.	.
4G\	X X 6	4b/	8f#/	.	.	.	.	8d/L	8d/L
.	.	.	8g/J)	.	.	.	.	8d/J	8d/J
4G\	.	4g/	8b\L	.	.	.	.	8d/L	8d/L
.	.	.	8g\	.	.	.	.	8d/	8d/
4G\	X 4 3	4b/	8ee\	.	.	.	.	8d/	8d/
.	.	.	8cc#\J	.	.	.	.	8d/J	8d/J
=64	=64	=64	=64	=64	=64	=64	=64	=64	=64
4F#\	X X 6	[1a	4dd\|	(4F#\	-cen-	2a\	-scen-	4d/	4d/
!	!	!	!LO:TUP:a:problem=klamra łukowa	!	!	!	!	!	!
4G\	X 4 2	.	12aa\L	4G\)	.	.	.	4r	4r
.	.	.	12bb\	.	.	.	.	.	.
.	.	.	12ccc#\J	.	.	.	.	.	.
4F#\	X X 6	.	4ddd\|	(4F#\	-dit	2a\	-dit	4d/	4d/
!	!	!	!LO:TUP:a:problem=klamra łukowa	!	!	!	!	!	!
4G\	X 4 2	.	12aa\L	4G\)	.	.	.	4r	4r
.	.	.	12bb\	.	.	.	.	.	.
.	.	.	12ccc#\J	.	.	.	.	.	.
=65	=65	=65	=65	=65	=65	=65	=65	=65	=65
4F#\	X X 6	4a/]	4ddd\	(4F#\	de	(4.dd\	de	2r	2r
4G\	.	2dd\	(8dd\L	4G\)	.	.	.	.	.
.	.	.	8ee\J)	.	.	8ee\)	.	.	.
.	.	.	8qqff#/	.	.	.	.	.	.
!	!	!	!	!	!	!LO:LB:g=original	!	!	!
4A\	X X 4	.	2eeT\	(4A\	Cae-	2ee\	Coe-	2a/	2eeT\
4AA/	X X 3	4cc#t\	.	4AA/)	.	.	.	.	.
!	!	!	!LO:LB:g=original	!	!	!	!	!	!LO:LB:g=original
=66	=66	=66	=66	=66	=66	=66	=66	=66	=66
!	!	!	!LO:TX:a:t=P:problem=pierwsza wartość w takcie niewidoczna - defekt źródła	!	!	!	!	!	!
2D/	.	(8d/L	8ryy	2D/	-lis	2dd\	-lis	4f#/	4dd\
.	.	8c#/)	(8c#/L	.	.	.	.	.	.
.	.	8d/	8d/	.	.	.	.	8d/L	8d/L
.	.	8d/J|	8d/J)	.	.	.	.	8d/J	8d/J
2C#/	X 4 2	(8d/L	(8d/L	4C#/	de-	4ff#\	de-	8d/L	8d/L
.	.	8c#/)	8c#/)	.	.	.	.	8d/	8d/
.	.	8d/	8d/	4C#/	-scen-	4ff#\	-scen-	8d/	8d/
.	.	8d/J|	8d/J|	.	.	.	.	8d/J	8d/J
!	!	!LO:LB:g=original	!	!	!	!	!	!	!
=67	=67	=67	=67	=67	=67	=67	=67	=67	=67
2BB/	X 5 3	8d/L	8d/L	2BB/	-dit	2ff#\	-dit	2d/	2d/
.	.	8f#/	8f#/	.	.	.	.	.	.
.	.	8a/	8a/	.	.	.	.	.	.
.	.	8dd/J	8dd/J	.	.	.	.	.	.
2r	.	8ff#\L	8ff#\L	2r	.	2r	.	2r	2r
.	.	8dd\	8dd\	.	.	.	.	.	.
.	.	8a\	8a\	.	.	.	.	.	.
.	.	8f#\J	8f#\J	.	.	.	.	.	.
!	!	!	!	!	!	!	!	!LO:LB:g=original	!
=68	=68	=68	=68	=68	=68	=68	=68	=68	=68
*	*	*	*	*	*ij	*	*ij	*	*
2BB/	.	(8d/L	8dT/L	2B\	de-	2f#/	de-	4r	4r
.	.	8c#/)	(8c#/	.	.	.	.	.	.
.	.	8d/	8d/)	.	.	.	.	8d/L	8d/L
.	.	8d/J|	8d/J|	.	.	.	.	8d/J	8d/J
2AA/	X 4 2	(8d/L	(8d/L	2A\	-scen-	(4f#/	-scen-	8d/L	8d/L
.	.	8c#/)	8c#/	.	.	.	.	8d/	8d/
.	.	8d/	8d/)	.	.	4a\)	.	8d/	8d/
.	.	8d/J|	8d/J|	.	.	.	.	8d/J	8d/J
=69	=69	=69	=69	=69	=69	=69	=69	=69	=69
2GG/	X X 5	8d/L	8d/L	2G\	-dit	2b\	-dit	2d/	2d/
.	.	8g/	8g/	.	.	.	.	.	.
.	.	8b/	8b/	.	.	.	.	.	.
.	.	8dd/J	8dd/J	.	.	.	.	.	.
2r	.	8gg\L	8gg\L	2r	.	2r	.	2r	2r
.	.	8dd\	8dd\	.	.	.	.	.	.
.	.	8b\	8b\	.	.	.	.	.	.
.	.	8g\J	8g\J	.	.	.	.	.	.
=70	=70	=70	=70	=70	=70	=70	=70	=70	=70
2G\	.	(8d/L	(8dT/L	2G\	de-	2b\	de-	4r	4r
.	.	8c#/)	8c#/)	.	.	.	.	.	.
.	.	8d/	8d/	.	.	.	.	8d/L	8d/L
.	.	8d/J|	8d/J|	.	.	.	.	8d/J	8d/J
2F#\	X X 6	(8d/L	(8d/L	2F#\	-scen-	2a\	-scen-	4d/	4d/
.	.	8c#/)	8c#/)	.	.	.	.	.	.
.	.	8d/	8d/	.	.	.	.	4d/	4d/
.	.	8d/J|	8d/J|	.	.	.	.	.	.
!LO:LB:g=original	!	!	!	!	!	!	!	!	!
=71	=71	=71	=71	=71	=71	=71	=71	=71	=71
!	!	!	!	!	!	!	!	!LO:TX:a:t=1	!LO:TX:a:t=1
4E\	X X 6	(8g\L	(8g\L	1E	-dit	1g	-dit	1r	1r
*	*	*	*	*	*Xij	*	*Xij	*	*
.	.	8cc#\	8cc#\	.	.	.	.	.	.
8c#\L	.	8ee\)	8ee\)	.	.	.	.	.	.
8B\J	.	8dd\J|	8dd\J|	.	.	.	.	.	.
8A\L	.	8cc#\L	8cc#\L	.	.	.	.	.	.
8G\	.	8b\	8b\	.	.	.	.	.	.
8F#\	.	8a\	8a\	.	.	.	.	.	.
8E\J	.	8gg\J	8gg\J	.	.	.	.	.	.
=72	=72	=72	=72	=72	=72	=72	=72	=72	=72
4D\	.	(8gg\L	(8gg\L	(4D\	de	(4f#/	de	2dd\	1ryy
.	.	8ff#\)	8ff#\)	.	.	.	.	.	.
4F#\	X X 6	8ee\|	8ee\|	4F#\)	.	4a\)	.	.	.
.	.	8dd\J|	8dd\J|	.	.	.	.	.	.
4G\	X X 6	(8ff#\L	(8ff#\L	(4G\	cae-	(4b\	Coe-	2a/	.
.	.	8ee\)	8ee\)	.	.	.	.	.	.
4A\	X X 3	8dd\|	8dd\|	4A\)	.	4a\)	.	.	.
.	.	8cc#\J|	8cc#\J	.	.	.	.	.	.
=73	=73	=73	=73	=73	=73	=73	=73	=73	=73
2D/	.	(8d/L	(8d/L	2D/	-lis	2a\	-lis.	4f#/	1ryy
.	.	8c#/)	8c#/)	.	.	.	.	.	.
.	.	8d/	8d/|	.	.	.	.	8d/L	.
.	.	8d/J|	8d/J	.	.	.	.	8d/J	.
2C#/	X 4 2	(8d/L	(8d/L	2r	.	2r	.	8d/L	.
.	.	8c#/)	8c#/)	.	.	.	.	8d/	.
.	.	8d/	8d/	.	.	.	.	8d/	.
.	.	8d/J|	8d/J|	.	.	.	.	8d/J	.
!	!	!LO:LB:g=original	!LO:LB:g=original	!	!	!LO:LB:g=original	!	!	!
=74	=74	=74	=74	=74	=74	=74	=74	=74	=74
!	!	!	!LO:TX:a:t=P:problem=początek taktu niewidoczny - defekt źródła	!LO:TX:a:t=7	!	!LO:TX:a:t=7	!	!	!
2BB/	X X 5	8d/L	4ryy	00r	.	00r	.	2d/	1ryy
.	.	8f#/	.	.	.	.	.	.	.
.	.	8a/	8a/L	.	.	.	.	.	.
.	.	8dd/J	8dd/J	.	.	.	.	.	.
2r	.	8ff#\L	8ff#\L	.	.	.	.	2r	.
.	.	8dd\	8dd\	.	.	.	.	.	.
.	.	8a\	8a\	.	.	.	.	.	.
.	.	8f#\J	8f#\J	.	.	.	.	.	.
=75	=75	=75	=75	=75	=75	=75	=75	=75	=75
2BB/	.	(8d/L	(8d/L	.	.	.	.	4r	1ryy
.	.	8c#/)	8c#/	.	.	.	.	.	.
.	.	8d/	8d/)	.	.	.	.	8d/L	.
.	.	8d/J|	8d/J	.	.	.	.	8d/J	.
2AA/	X 4 2	(8d/L	(8d/L	.	.	.	.	8d/L	.
.	.	8c#/)	8c#/	.	.	.	.	8d/	.
.	.	8d/	8d/)	.	.	.	.	8d/	.
.	.	8d/J|	8d/J	.	.	.	.	8d/J	.
=76	=76	=76	=76	=76	=76	=76	=76	=76	=76
2GG/	X X 3	8d/L	8d/L	.	.	.	.	2d/	1ryy
.	.	8g/	8g/	.	.	.	.	.	.
.	.	8b/	8b/	.	.	.	.	.	.
.	.	8dd/J	8dd/J	.	.	.	.	.	.
2r	.	8gg\L	8gg\L	.	.	.	.	2r	.
.	.	8dd\	8dd\	.	.	.	.	.	.
.	.	8b\	8b\	.	.	.	.	.	.
.	.	8g\J	8g\J	.	.	.	.	.	.
=77	=77	=77	=77	=77	=77	=77	=77	=77	=77
2G\	.	(8d/L	(8d/L	.	.	.	.	4r	1ryy
.	.	8c#/)	8c#/	.	.	.	.	.	.
.	.	8d/	8d/)	.	.	.	.	8d/L	.
.	.	8d/J|	8d/J|	.	.	.	.	8d/J	.
2F#\	X X 6	(8d/L	(8d/L	.	.	.	.	4d/	.
.	.	8c#/)	8c#/	.	.	.	.	.	.
.	.	8d/	8d/)	.	.	.	.	4d/	.
.	.	8d/J|	8d/J|	.	.	.	.	.	.
!	!	!	!	!	!	!	!	!LO:LB:g=original	!
=78	=78	=78	=78	=78	=78	=78	=78	=78	=78
4E\	X X 6	(8g\L	(8g\L	0r	.	0r	.	1r	1ryy
.	.	8cc#\	8cc#\	.	.	.	.	.	.
8c#\L	.	8ee\)	8ee\)	.	.	.	.	.	.
8B\J	.	8dd\J|	8dd\J|	.	.	.	.	.	.
8A\L	.	8cc#\L	8cc#\L	.	.	.	.	.	.
8G\	.	8b\	8b\	.	.	.	.	.	.
8F#\	.	8a\	8a\	.	.	.	.	.	.
8E\J	.	8gg\J	8gg\J	.	.	.	.	.	.
=79	=79	=79	=79	=79	=79	=79	=79	=79	=79
4D\	.	(8gg\L	(8gg\L	.	.	.	.	2dd\	2ff#\
.	.	8ff#\)	8ff#\)	.	.	.	.	.	.
4F#\	X X 6	8ee\|	8ee\|	.	.	.	.	.	.
.	.	8dd\J|	8dd\J|	.	.	.	.	.	.
4G\	X X 6	(8ff#\L	(8ff#\L	.	.	.	.	2a/	2eeT\
.	.	8ee\)	8ee\)	.	.	.	.	.	.
4A\	X X 3	8dd\|	8dd\|	.	.	.	.	.	.
.	.	8cc#\J|	8cc#\J|	.	.	.	.	.	.
!LO:LB:g=original	!	!	!	!	!	!	!	!	!
=80	=80	=80	=80	=80	=80	=80	=80	=80	=80
4r	.	2dd\	2dd\	1r	.	1r	.	2f#/	2dd\
4D\	.	.	.	.	.	.	.	.	.
4F#\	X X 6	4r	4r	.	.	.	.	4r	4r
4A\	X X 3	4cc#\	4ee\	.	.	.	.	4a/	4ee\
=81	=81	=81	=81	=81	=81	=81	=81	=81	=81
.	.	8qqee/	8qqgg/	.	.	.	.	.	.
4d\	.	4dd\	4ff#\	4r	.	4r	.	4dd\	4ff#\
4A\	.	4cc#\	4ee\	4A\	de-	4ee\	de-	4a/	4ee\
!	!	!LO:LB:g=original	!	!	!	!	!	!	!
4r	.	4r	4r	4d\	-ſcen-	4ff#\	-ſcen-	4r	4r
4A\	.	4cc#\	4ee\|	4A\	-dit	4ee\	-dit	4a/	4ee\
=82	=82	=82	=82	=82	=82	=82	=82	=82	=82
!	!	!LO:TUP:a:problem=klamra łukowa	!LO:TUP:a:problem=klamra łukowa	!	!	!	!	!	!
4D\	.	12dd\L	12ff#\L	4r	.	4r	.	4dd\	4ff#\
.	.	12ee\	12gg\	.	.	.	.	.	.
.	.	12ff#\J	12aa\J	.	.	.	.	.	.
*	*	*	*	*	*ij	*	*ij	*	*
4A\	.	4cc#\	4ee\|	4A\	de-	4ee\	de-	4a/	4ee\
4r	.	4r	4r	4d\	-scen-	4ff#\	-scen-	4r	4r
4D\	.	4ff#\	4aa\|	4D\	-dit	4ff#\	-dit	4ff#\	4aa\
*	*	*	*	*	*	*	*Xij	*	*
!	!	!	!LO:LB:g=original	!	!	!	!	!	!LO:PB:g=original
=83	=83	=83	=83	=83	=83	=83	=83	=83	=83
!	!	!	!LO:TX:a:t=P:problem=początek taktu niewidoczny - defekt źródła	!	!	!	!	!	!
4G\	.	4gg\	4ryy	4r	.	4r	.	4gg\	4bb\
4D\	.	4ff#\	4aa\	4D\	de-	4a\	de	4ff#\	4aa\
4r	.	4r	4r	4G\	-scen-	4b\	Coe-	4r	4r
!	!	!	!LO:TX:a:t=a	!	!	!	!	!	!
4D\	.	4ff#\	4aa\	4D\	-dit	4a\	-lis	4ff#\	4aa\
*	*	*	*	*	*Xij	*	*	*	*
=84	=84	=84	=84	=84	=84	=84	=84	=84	=84
!	!	!LO:TUP:a:problem=klamra łukowa	!LO:TUP:b:problem=klamra łukowa	!	!	!	!	!	!
4GG/	.	12gg\L	12bb\L	4r	.	4r	.	4gg\	4bb\
.	.	12aa\	12ccc#\	.	.	.	.	.	.
.	.	12bb\J	12ddd\J	.	.	.	.	.	.
4D\	X X 6	4ff#\	4aa\	4D\	de	4a\	de-	4ff#\	4aa\
4F#\	.	4r	4r	4F#\	Coe-	4a\	-ſcen-	2r	2r
4A\	.	(8ee\L	4ccc#\	4A\	-lis	4a\	-dit	.	.
.	.	8a\J)	.	.	.	.	.	.	.
=85	=85	=85	=85	=85	=85	=85	=85	=85	=85
!	!	!	!	!	!	!	!	!LO:TX:a:t=1	!LO:TX:a:t=1
4d\	.	(8ff#\L	4ddd\	4d\	des-	(1a	de	1r	1r
.	.	8a\)	.	.	.	.	.	.	.
4A\	.	(8ee\	4ccc#\	4A\	.	.	.	.	.
.	.	8a\J)	.	.	.	.	.	.	.
4d\	.	(8ff#\L	4ddd\	4d\	.	.	.	.	.
.	.	8a\)	.	.	.	.	.	.	.
4A\	.	(8ee\	4ccc#\	4A\	.	.	.	.	.
.	.	8a\J)	.	.	.	.	.	.	.
=86	=86	=86	=86	=86	=86	=86	=86	=86	=86
4d\	.	(8ff#\L	4ddd\	4d\	-cen-	1aT)	Coe-	2r	2r
.	.	8a\)	.	.	.	.	.	.	.
4A\	.	(8ee\	4ccc#\	4A\	.	.	.	.	.
.	.	8a\J)	.	.	.	.	.	.	.
4d\	.	4ff#\	4ddd\	4d\	-dit	.	.	4r	4r
4AA/	.	4cc#\	(8ee\L	4AA/	de-	.	.	4a/	4ee\
.	.	.	8a\J)	.	.	.	.	.	.
=87	=87	=87	=87	=87	=87	=87	=87	=87	=87
4D/	.	4dd\	(8ff#\L	(4D/	-scen-	1a	.	4dd\|	4ff#\
.	.	.	8a\)	.	.	.	.	.	.
4AA/	.	4cc#\	(8ee\	4AA/)	.	.	.	4a/	4ee\
.	.	.	8a\J)	.	.	.	.	.	.
4D/	.	4dd\	(8ff#\L	(4D/	.	.	.	4dd\	4ff#\
.	.	.	8a\)	.	.	.	.	.	.
4AA/	.	4cc#\	(8ee\	4AA/)	.	.	.	4a/	4ee\
.	.	.	8a\J)	.	.	.	.	.	.
=88	=88	=88	=88	=88	=88	=88	=88	=88	=88
4D/	.	4dd\	(8ff#\L	4D/	.	2.a\	-lis	4dd\	4ff#\
.	.	.	8a\	.	.	.	.	.	.
4AA/	.	4cc#\	8ee\	4AA/	.	.	.	4a/	4ee\
.	.	.	8a\J)	.	.	.	.	.	.
4D/	.	4dd\	4ff#\	4D/	-dit	.	.	4dd\	4ff#\
4r	.	(8ee\L	4ccc#\	4r	.	4r	.	4r	4r
.	.	8a\J)	.	.	.	.	.	.	.
!LO:LB:g=original	!	!	!	!	!	!LO:LB:g=original	!	!LO:LB:g=original	!
=89	=89	=89	=89	=89	=89	=89	=89	=89	=89
4r	.	(8ff#\L	4ddd\	4r	.	4r	.	4r	4r
.	.	8a\J)	.	.	.	.	.	.	.
4AA/	.	4cc#\	(8ee\L	(4A\	de	4ee\	de	4a/	4ee\
.	.	.	8a\J)	.	.	.	.	.	.
!	!	!	!	!LO:LB:g=original	!	!	!	!	!
4D/	.	4dd\	(8ff#\L	4d\)	.	4ff#\	.	4dd\	4ff#\
.	.	.	8a\J)	.	.	.	.	.	.
!	!	!LO:LB:g=original	!	!	!	!	!	!	!
4r	.	(8ee\L	4ccc#\	4r	.	4r	.	4r	4r
.	.	8a\J)	.	.	.	.	.	.	.
=90	=90	=90	=90	=90	=90	=90	=90	=90	=90
4r	.	(8ff#\L	4ddd\	4r	.	4r	.	4r	4r
.	.	8a\J)	.	.	.	.	.	.	.
!	!	!	!	!	!	!LO:TUP:a:problem=klamra łukowa	!	!	!
4AA/	.	4cc#\	(8ee\L	4AA/	de	12cc#\L	de-	4a/	4ee\
.	.	.	.	.	.	12dd\	.	.	.
.	.	.	8a\J)	.	.	.	.	.	.
.	.	.	.	.	.	12ee\J	.	.	.
4D\	.	(8dd\L	4ff#\	(4D\	Cae-	(4ff#\	-scen-	4dd\	4ff#\
.	.	8a\J)	.	.	.	.	.	.	.
4E\	X X 6	4gg\	4ccc#\	4E\)	.	4gg\)	.	4ee\	4gg\
=91	=91	=91	=91	=91	=91	=91	=91	=91	=91
!	!	!	!	!	!	!LO:N:vis=4	!	!	!
4F#\	X X 6	4ff#\	(8ddd\L	4F#\	-lis	4.aa\	-dit	4dd\	4ff#\
.	.	.	8aa\)	.	.	.	.	.	.
4G\	.	2dd\	8bb\	4G\	de	.	.	4ee\	4gg\
.	.	.	8dd\J|	.	.	8a\	de	.	.
4A\	X X 4	.	4a/	(4A\	Cae-	(4dd\	Coe-	4dd\	4ff#\
!	!	!	!LO:TX:a:t=P:problem=koniec taktu niewidoczny - defekt źródła	!	!	!	!	!	!
4AA/	X X 3	4cc#t\	4ryy	4AA/)	.	4cc#t\)	.	8a/L	8ee\L
.	.	.	.	.	.	.	.	8f#/J	8dd\J
!	!	!	!LO:LB:g=original	!	!	!	!	!	!
=92	=92	=92	=92	=92	=92	=92	=92	=92	=92
2D\	.	2d/	2dd\|	2D/	-lis	2dd\	-lis	2d/	2dd\|
2F#\	.	2f#/	2ff#\|	2r	.	2r	.	2f#/	2ff#\|
!	!	!	!	!	!	!	!	!	!LO:LB:g=original
=93	=93	=93	=93	=93	=93	=93	=93	=93	=93
!	!	!	!	!	!	!LO:TX:a:t=3	!	!	!
2A\	.	2a/	2aa\|	0r	.	0r	.	2a/	2aa\
4r	.	4r	4r	.	.	.	.	4r	4r
!	!	!LO:TUP:a:problem=klamra łukowa	!LO:TUP:a:problem=klamra łukowa	!	!	!	!	!	!
4A\	.	12a\L	12aa\L	.	.	.	.	4a/	4a/
.	.	12b\	12bb\	.	.	.	.	.	.
.	.	12cc#\J	12ccc#\J	.	.	.	.	.	.
=94	=94	=94	=94	=94	=94	=94	=94	=94	=94
4d\	.	4dd\	4ddd\	.	.	.	.	4dd\|	4dd\|
!	!	!LO:TUP:a:problem=klamra łukowa	!LO:TUP:a:problem=klamra łukowa	!	!	!	!	!	!
4A\	.	12a\L	12aa\L	.	.	.	.	4a/|	4a/|
.	.	12b\	12bb\	.	.	.	.	.	.
.	.	12cc#\J	12ccc#\J	.	.	.	.	.	.
4d\	.	4dd\|	4ddd\	.	.	.	.	4dd\|	4dd\|
4A\	.	4a/|	4aa\|	.	.	.	.	4a/|	4a/|
=95	=95	=95	=95	=95	=95	=95	=95	=95	=95
4F#\	.	4f#/|	4ff#\|	1r	.	1r	.	4f#/|	4f#/|
4D\	.	4d/|	4dd\|	.	.	.	.	4d/	4d/|
2r	.	2r	2r	.	.	.	.	2r	2r
==	==	==	==	==	==	==	==	==	==
*-	*-	*-	*-	*-	*-	*-	*-	*-	*-
!!!system-decoration: [(g1)][(g2)][(g3)][(s7)]
!!!RDF**kern: | = vertical stroke
!!!RDF**kern: > = above
!!!RDF**kern: < = below
!!!ENC: Andrzej Gręziak
!!!END: 2022-03-29
!!!EED: Antoni Szymański
!!!EEV: 2022-04-07
